tools/download-figma-icons/icons/solid/emobility.svg

<svg width="24" height="24" viewBox="0 0 24 24" fill="none" xmlns="http://www.w3.org/2000/svg">
<path fill-rule="evenodd" clip-rule="evenodd" d="M16.1849 10.5H14.0924C13.6799 10.5 13.3424 10.1625 13.3424 9.74997C13.3424 9.33747 13.6799 8.99997 14.0924 8.99997H16.1849C16.5974 8.99997 16.9349 9.33747 16.9349 9.74997C16.9349 10.1625 16.5974 10.5 16.1849 10.5ZM3.48078 5.90251L5.25001 1.50005H14.2274L16.0057 5.90251H3.48078ZM5.36251 10.485H3.27003C2.85753 10.485 2.52003 10.155 2.52003 9.73498C2.52003 9.32323 2.85753 8.98499 3.27003 8.98499H5.36251C5.775 8.98499 6.1125 9.32323 6.1125 9.73498C6.1125 10.155 5.775 10.485 5.36251 10.485ZM22.1473 8.99241H19.4773V7.71742C19.4773 7.46242 19.3498 7.23068 19.1398 7.08743L17.7223 6.15744L15.4273 0.472495C15.3148 0.187498 15.0448 0 14.7373 0H4.74745C4.43995 0 4.16246 0.187498 4.04996 0.472495L1.76323 6.14994L0.337497 7.08743C0.127499 7.23068 0 7.46242 0 7.71742V12.4724C0 12.8856 0.337497 13.2224 0.749992 13.2224H2.06248V14.4224C2.06248 15.6681 3.07572 16.6798 4.32071 16.6798C5.55744 16.6798 6.57743 15.6681 6.57743 14.4224V13.2224H12.8774V14.4224C12.8774 15.6681 13.8899 16.6798 15.1356 16.6798C16.3806 16.6798 17.3923 15.6681 17.3923 14.4224V13.2224H18.7273C19.1473 13.2224 19.4773 12.8856 19.4773 12.4724V10.4924H22.1473C22.3423 10.4924 22.4998 10.6499 22.4998 10.8531V19.7473C22.4998 19.9423 22.3423 20.108 22.1473 20.108H11.4674C11.1306 18.7348 9.8999 17.7073 8.42241 17.7073H5.62494C5.21245 17.7073 4.87495 18.0456 4.87495 18.4573V18.8098H3.23247C2.81247 18.8098 2.48247 19.1473 2.48247 19.5598C2.48247 19.9805 2.81247 20.3098 3.23247 20.3098H4.87495V21.3973H3.23247C2.81247 21.3973 2.48247 21.7348 2.48247 22.1473C2.48247 22.5598 2.81247 22.8973 3.23247 22.8973H4.87495V23.2498C4.87495 23.6705 5.21245 23.9998 5.62494 23.9998H8.42241C9.8999 23.9998 11.1306 22.9805 11.4674 21.608H22.1473C23.168 21.608 23.9998 20.7748 23.9998 19.7473V10.8531C23.9998 9.82565 23.168 8.99241 22.1473 8.99241Z" fill="black"/>
</svg>

<svg xmlns="http://www.w3.org/2000/svg" width="24" height="24" fill="none" viewBox="0 0 24 24"><path fill="currentColor" fill-rule="evenodd" d="M16.185 10.5h-2.093a.75.75 0 0 1-.75-.75c0-.413.338-.75.75-.75h2.093c.412 0 .75.337.75.75 0 .412-.338.75-.75.75M3.48 5.903 5.25 1.5h8.977l1.779 4.403zm1.882 4.582H3.27a.747.747 0 0 1-.75-.75c0-.412.338-.75.75-.75h2.093c.412 0 .75.338.75.75 0 .42-.338.75-.75.75m16.784-1.493h-2.67V7.717a.76.76 0 0 0-.337-.63l-1.418-.93L15.427.472a.74.74 0 0 0-.69-.472h-9.99a.75.75 0 0 0-.697.472L1.763 6.15l-1.426.937a.76.76 0 0 0-.337.63v4.755c0 .414.337.75.75.75h1.312v1.2a2.26 2.26 0 0 0 2.259 2.258 2.264 2.264 0 0 0 2.256-2.258v-1.2h6.3v1.2a2.259 2.259 0 0 0 4.515 0v-1.2h1.335c.42 0 .75-.336.75-.75v-1.98h2.67c.195 0 .353.158.353.361v8.894a.36.36 0 0 1-.353.361h-10.68a3.14 3.14 0 0 0-3.045-2.4H5.625a.753.753 0 0 0-.75.75v.352H3.232c-.42 0-.75.337-.75.75 0 .42.33.75.75.75h1.643v1.087H3.232c-.42 0-.75.338-.75.75 0 .413.33.75.75.75h1.643v.353c0 .42.337.75.75.75h2.797a3.136 3.136 0 0 0 3.045-2.392h10.68A1.86 1.86 0 0 0 24 19.748v-8.895c0-1.027-.832-1.86-1.853-1.86" clip-rule="evenodd"/></svg>
